X:6317
T:Stripley's
O:england
R:Jig
S:Tim Britton
M:6/8
L:1/8
K:D
d3 dfe|dfe dBA|B3 BAF|B2d BAF|
AFE DFA|BGd BAF|AFE EFE|AFE EFA:||
def a3|baf afd|e2A ~G3|fed bab|
d2f ede|fdB BAF|AFE EFE|AFE EFA:||


